Sources/FrostedUI/Resources/Icons.xcassets/split32.imageset/split-32.svg

<svg width="32" height="32" viewBox="0 0 32 32" fill="none" xmlns="http://www.w3.org/2000/svg" data-fui-icon="true">
  <path
    d="M24.2344 2.20508C24.5351 1.92052 25.0102 1.93379 25.2949 2.23438L29.7949 6.98438C30.0686 7.27355 30.0686 7.72645 29.7949 8.01562L25.2949 12.7656C25.0102 13.0662 24.5351 13.0795 24.2344 12.7949C23.9338 12.5102 23.9205 12.0351 24.2051 11.7344L27.5059 8.25H22.5615C21.4171 8.25017 20.3665 8.88312 19.8311 9.89453L16.5986 16L19.8311 22.1055C20.3665 23.1169 21.4171 23.7498 22.5615 23.75H27.5059L24.2051 20.2656C23.9205 19.9649 23.9338 19.4898 24.2344 19.2051C24.5351 18.9205 25.0102 18.9338 25.2949 19.2344L29.7949 23.9844C30.0686 24.2736 30.0686 24.7264 29.7949 25.0156L25.2949 29.7656C25.0102 30.0662 24.5351 30.0795 24.2344 29.7949C23.9338 29.5102 23.9205 29.0351 24.2051 28.7344L27.5059 25.25H22.5615C20.8616 25.2498 19.3013 24.31 18.5059 22.8076L15.2988 16.75H11.4443C11.0825 19.1556 9.00653 21 6.5 21C3.73858 21 1.5 18.7614 1.5 16C1.5 13.2386 3.73858 11 6.5 11C9.00653 11 11.0825 12.8444 11.4443 15.25H15.2988L18.5059 9.19238C19.3013 7.69004 20.8616 6.75017 22.5615 6.75H27.5059L24.2051 3.26562C23.9205 2.96491 23.9338 2.48985 24.2344 2.20508ZM6.5 12.5C4.567 12.5 3 14.067 3 16C3 17.933 4.567 19.5 6.5 19.5C8.433 19.5 10 17.933 10 16C10 14.067 8.433 12.5 6.5 12.5Z"
    fill="currentColor"
  />
</svg>

<svg xmlns="http://www.w3.org/2000/svg" width="32" height="32" fill="none" data-fui-icon="true" viewBox="0 0 32 32"><path fill="currentColor" d="M24.234 2.205a.75.75 0 0 1 1.06.03l4.5 4.75a.75.75 0 0 1 0 1.03l-4.5 4.75a.75.75 0 0 1-1.089-1.03l3.3-3.485h-4.943a3.09 3.09 0 0 0-2.73 1.645L16.598 16l3.232 6.105a3.09 3.09 0 0 0 2.73 1.645h4.945l-3.3-3.484a.75.75 0 0 1 1.089-1.032l4.5 4.75a.75.75 0 0 1 0 1.032l-4.5 4.75a.75.75 0 0 1-1.09-1.032l3.3-3.484h-4.943c-1.7 0-3.26-.94-4.056-2.442l-3.207-6.058h-3.855A5.001 5.001 0 0 1 1.5 16a5 5 0 0 1 9.944-.75H15.3l3.207-6.058A4.59 4.59 0 0 1 22.56 6.75h4.945l-3.3-3.484a.75.75 0 0 1 .028-1.06M6.5 12.5a3.5 3.5 0 1 0 0 7 3.5 3.5 0 0 0 0-7"/></svg>
